assets/resources/icons/services/Bar.svg

<svg width="50" height="50" viewBox="0 0 50 50" fill="none" xmlns="http://www.w3.org/2000/svg">
<path d="M26.5 30.6504C33.4 29.8504 38.55 24.1004 38.55 17.2004C38.55 14.0004 38.05 11.2504 37.05 8.95041L36.8 8.30042H13.25L13 8.90041C12 11.2004 11.5 13.9504 11.5 17.1504C11.5 24.0504 16.7 29.8504 23.55 30.6004L24 30.6504V41.0504H16.1V43.1504H33.85V41.0504H26.05V30.7004L26.5 30.6504ZM25 28.6004C18.7 28.6004 13.55 23.4504 13.55 17.1504C13.55 14.7504 13.9 12.7004 14.6 10.7504L14.7 10.4004H35.25L35.35 10.7504C35.85 12.1004 36.15 13.7004 36.25 15.5504L36.3 16.1004H17.7V18.2004H36.35L36.25 18.7504C35.5 24.5004 30.75 28.6004 25 28.6004Z" fill="#876671"/>
</svg>

<?xml version="1.0" encoding="utf-8"?>
<!-- Generator: Adobe Illustrator 25.0.0, SVG Export Plug-In . SVG Version: 6.00 Build 0)  -->
<svg version="1.1" id="Capa_1" xmlns="http://www.w3.org/2000/svg" xmlns:xlink="http://www.w3.org/1999/xlink" x="0px" y="0px"
	 viewBox="0 0 50 50" style="enable-background:new 0 0 50 50;" xml:space="preserve">
<style type="text/css">
	.st0{fill:#A52016;}
</style>
<path class="st0" d="M26.5,30.7c6.9-0.8,12-6.5,12-13.5C38.5,14,38,11.3,37,9l-0.2-0.6H13.2L13,8.9c-1,2.3-1.5,5-1.5,8.2
	c0,6.9,5.2,12.7,12,13.5l0.5,0v10.4h-7.9v2.1h17.7v-2.1H26V30.7L26.5,30.7z M25,28.6c-6.3,0-11.4-5.2-11.4-11.5
	c0-2.4,0.3-4.4,1.1-6.4l0.1-0.3h20.5l0.1,0.3c0.5,1.4,0.8,3,0.9,4.8l0,0.6H17.7v2.1h18.6l-0.1,0.6C35.5,24.5,30.8,28.6,25,28.6z"/>
</svg>
